svg/emoji_u1f99d.svg

<?xml version="1.0" encoding="UTF-8" standalone="no"?>
<!DOCTYPE svg PUBLIC "-//W3C//DTD SVG 1.1//EN" "http://www.w3.org/Graphics/SVG/1.1/DTD/svg11.dtd">
<svg width="100%" height="100%" viewBox="0 0 128 128" version="1.1" xmlns="http://www.w3.org/2000/svg" xmlns:xlink="http://www.w3.org/1999/xlink" xml:space="preserve" xmlns:serif="http://www.serif.com/" style="fill-rule:evenodd;clip-rule:evenodd;stroke-linejoin:round;stroke-miterlimit:2;">
    <path id="path35529" d="M9.93,67.23C9.93,67.23 13.45,61.53 18.94,55.47C20.95,53.26 24.01,49.98 24.15,48.71C24.29,47.44 22.04,40.62 20.91,34.98C19.97,30.27 19.5,24.28 21.19,22.45C22.88,20.62 32.42,22.49 38.08,25.27C43.88,28.11 46.85,30.61 47.65,30.62C48.65,30.63 54.55,25.97 63.7,26.12C72.85,26.27 79.33,30.48 80.59,30.48C81.85,30.48 85.93,27.44 91.57,24.5C98.19,21.05 105.93,20.77 107.48,21.9C109.03,23.03 108.04,31.19 106.92,35.41C105.48,40.8 103.05,46.88 103.19,48.01C103.33,49.14 105.79,50.33 110.72,55.82C114.61,60.16 119.38,68.63 119.38,68.63L66.67,79.48L9.93,67.23Z" style="fill:rgb(158,158,158);fill-rule:nonzero;"/>
    <path id="path35531" d="M5.71,75.12C5.71,75.96 14.44,80.75 14.44,80.75C14.44,80.75 4.02,84.55 4.02,85.25C4.02,86.38 19.93,102 35.55,107.35C48.57,111.81 75.77,117.34 97.49,106.15C116.35,96.44 122.55,88.9 122.55,87.78C122.55,86.66 114.1,82.15 114.1,82.15C114.1,82.15 122.97,76.1 122.97,75.25C122.97,74.41 119.45,68.21 118.32,66.38C117.19,64.55 113.82,59.2 112.41,58.64C111,58.08 84.68,47.1 75.95,53.15C71.39,56.31 70.74,59.91 70.74,63.43C70.74,69.63 71.3,74.97 71.3,74.97C71.3,74.97 69.19,72.65 65.53,72.58C62.08,72.51 60.11,74.48 60.11,74.48C60.11,74.48 61.17,65.82 61.03,62.58C60.89,59.34 60.19,55.26 54.55,52.16C46.48,47.72 26.36,55.78 20.2,59.27C15.98,61.66 11.33,64.83 9.78,67.22C8.23,69.61 5.71,74.13 5.71,75.12Z" style="fill:rgb(224,224,224);fill-rule:nonzero;"/>
    <path id="path35533" d="M30.63,44.33C30.95,44.33 33.43,41.79 36.07,39.64C38.85,37.37 41.98,35.09 41.98,34.85C41.98,34.38 30.34,25.84 27.06,28.37C23.78,30.9 29.88,44.33 30.63,44.33Z" style="fill:rgb(97,97,97);fill-rule:nonzero;"/>
    <path id="path35535" d="M86.66,34.66C86.63,34.99 89.86,36.87 92.39,39.16C94.92,41.46 97.41,43.81 97.74,43.76C98.4,43.67 104.03,30.9 101.4,28.65C98.77,26.4 86.75,33.73 86.66,34.66Z" style="fill:rgb(97,97,97);fill-rule:nonzero;"/>
    <path id="path35537" d="M43.02,102.52C44.84,101.81 44.52,94.92 47.62,88.25C50.72,81.59 54.28,78.3 56.35,76.89C58.41,75.48 60.01,75.01 61.14,73.51C62.27,72.01 62.15,65.03 61.05,62.58C59.55,59.25 55.42,54.65 47.25,55.21C39.08,55.77 32.33,64.31 28.57,67.88C24.82,71.45 19.09,75.29 19.18,82.61C19.27,89.93 25.37,95 29.13,97.72C32.88,100.46 40.39,103.55 43.02,102.52Z" style="fill:rgb(97,97,97);fill-rule:nonzero;"/>
    <path id="path35539" d="M71.17,75.02C69.48,73.89 70.14,68.83 70.23,66.48C70.32,64.13 71.26,58.13 77.64,56.44C84.02,54.75 87.4,57.28 91.25,59.91C95.1,62.54 99.04,66.06 101.76,67.98C107.86,72.3 113.02,77.74 111.71,83.56C110.4,89.38 106.6,93.01 100.73,97.17C94.63,101.49 89,105.05 87.03,103.83C85.06,102.61 85.72,92.57 81.3,85.62C76.9,78.68 73.15,76.34 71.17,75.02Z" style="fill:rgb(97,97,97);fill-rule:nonzero;"/>
    <g id="g35380" transform="matrix(1,0,0,1,0.85291,-11.7889)">
        <path id="path35376" d="M52.92,81.07C52.92,85.66 49.61,89.37 45.54,89.37C41.47,89.37 38.16,85.65 38.16,81.07C38.16,76.47 41.47,72.76 45.54,72.76C49.61,72.75 52.92,76.47 52.92,81.07Z" style="fill:rgb(33,33,33);fill-rule:nonzero;"/>
        <path id="path35378" d="M75.26,81.07C75.26,85.66 78.56,89.37 82.64,89.37C86.71,89.37 90.02,85.65 90.02,81.07C90.02,76.47 86.71,72.76 82.64,72.76C78.57,72.75 75.26,76.47 75.26,81.07Z" style="fill:rgb(33,33,33);fill-rule:nonzero;"/>
    </g>
    <path id="path35382" d="M65.333,98.875C64.563,98.875 63.943,98.255 63.943,97.485L63.943,89.335C63.943,88.565 64.563,87.945 65.333,87.945C66.103,87.945 66.723,88.565 66.723,89.335L66.723,97.485C66.723,98.255 66.103,98.875 65.333,98.875Z" style="fill:rgb(33,33,33);fill-rule:nonzero;"/>
    <g id="g35388" transform="matrix(1,0,0,1,0.85291,-9.12198)">
        <path id="path35384" d="M57.49,111.267C57.06,111.267 56.6,111.247 56.13,111.207C50.47,110.707 47.98,106.317 47.45,104.057C47.24,103.137 47.81,102.217 48.73,102.007C49.65,101.787 50.56,102.357 50.78,103.277C50.83,103.487 51.89,107.397 56.43,107.807C61.18,108.237 63.02,105.747 63.1,105.637C63.65,104.877 64.7,104.687 65.47,105.217C66.24,105.747 66.44,106.787 65.92,107.567C65.81,107.727 63.35,111.267 57.49,111.267Z" style="fill:rgb(33,33,33);fill-rule:nonzero;"/>
        <path id="path35386" d="M71.52,111.267C65.66,111.267 63.2,107.727 63.09,107.567C62.56,106.787 62.77,105.717 63.55,105.187C64.34,104.657 65.4,104.867 65.93,105.647C65.99,105.727 67.86,108.217 72.58,107.797C77.21,107.387 78.22,103.317 78.23,103.277C78.45,102.357 79.37,101.787 80.28,101.997C81.2,102.217 81.77,103.127 81.56,104.047C81.03,106.297 78.53,110.697 72.88,111.197C72.4,111.247 71.95,111.267 71.52,111.267Z" style="fill:rgb(33,33,33);fill-rule:nonzero;"/>
    </g>
    <g id="g35394" transform="matrix(1,0,0,1,0.85291,-9.12198)">
        <path id="path35390" d="M59.22,98.397C59.3,99.447 60.01,100.547 61.11,101.217C61.99,101.767 63.24,102.037 64.47,102.037C65.69,102.037 66.94,101.767 67.82,101.217C68.92,100.537 69.63,99.447 69.71,98.397C69.79,97.397 69.56,96.377 68.47,95.677C67.87,95.287 67.12,95.027 66.35,94.887C66.06,94.837 65.3,94.707 64.5,94.707C63.71,94.707 62.88,94.827 62.58,94.887C61.81,95.027 61.06,95.287 60.46,95.677C59.38,96.387 59.14,97.397 59.22,98.397Z" style="fill:rgb(33,33,33);fill-rule:nonzero;"/>
        <path id="path35392" d="M64.43,103.527C62.89,103.527 61.39,103.147 60.32,102.487C58.85,101.577 57.85,100.057 57.73,98.517C57.56,96.277 58.69,95.067 59.65,94.437C60.39,93.967 61.31,93.617 62.31,93.437C62.71,93.357 63.62,93.237 64.49,93.237C65.43,93.237 66.29,93.377 66.61,93.437C67.61,93.617 68.53,93.967 69.26,94.437C70.23,95.067 71.36,96.287 71.18,98.527C71.06,100.057 70.07,101.577 68.59,102.497C67.52,103.157 66.02,103.537 64.48,103.537L64.43,103.537L64.43,103.527ZM64.5,96.197C63.82,96.197 63.09,96.307 62.86,96.347C62.24,96.467 61.67,96.667 61.27,96.927C60.88,97.177 60.65,97.497 60.71,98.277C60.76,98.877 61.22,99.527 61.9,99.947C62.51,100.327 63.46,100.547 64.45,100.547L64.45,102.037L64.47,100.547C64.47,100.547 66.45,100.317 67.05,99.947C67.72,99.537 68.2,98.867 68.24,98.277C68.31,97.497 68.07,97.177 67.68,96.927C67.28,96.667 66.71,96.467 66.1,96.347C65.93,96.327 65.22,96.197 64.5,96.197Z" style="fill:rgb(33,33,33);fill-rule:nonzero;"/>
    </g>
</svg>

<?xml version="1.0" encoding="UTF-8" standalone="no"?>
<!-- Generator: Adobe Illustrator 24.1.2, SVG Export Plug-In . SVG Version: 6.00 Build 0)  -->

<svg
   version="1.1"
   id="Layer_3"
   x="0px"
   y="0px"
   viewBox="0 0 128 128"
   style="enable-background:new 0 0 128 128;"
   xml:space="preserve"
   sodipodi:docname="emoji_u1f99d.svg"
   inkscape:version="1.2.2 (732a01da63, 2022-12-09)"
   xmlns:inkscape="http://www.inkscape.org/namespaces/inkscape"
   xmlns:sodipodi="http://sodipodi.sourceforge.net/DTD/sodipodi-0.dtd"
   xmlns="http://www.w3.org/2000/svg"
   xmlns:svg="http://www.w3.org/2000/svg"><defs
   id="defs35554" /><sodipodi:namedview
   id="namedview35552"
   pagecolor="#ffffff"
   bordercolor="#000000"
   borderopacity="0.25"
   inkscape:showpageshadow="2"
   inkscape:pageopacity="0.0"
   inkscape:pagecheckerboard="0"
   inkscape:deskcolor="#d1d1d1"
   showgrid="false"
   inkscape:zoom="4.2421875"
   inkscape:cx="62.585635"
   inkscape:cy="65.532228"
   inkscape:window-width="1366"
   inkscape:window-height="697"
   inkscape:window-x="-8"
   inkscape:window-y="-8"
   inkscape:window-maximized="1"
   inkscape:current-layer="Layer_3" />
<path
   style="fill:#B0B0B0;"
   d="M9.93,67.23c0,0,3.52-5.7,9.01-11.76c2.01-2.21,5.07-5.49,5.21-6.76c0.14-1.27-2.11-8.09-3.24-13.73  c-0.94-4.71-1.41-10.7,0.28-12.53c1.69-1.83,11.23,0.04,16.89,2.82c5.8,2.84,8.77,5.34,9.57,5.35c1,0.01,6.9-4.65,16.05-4.5  s15.63,4.36,16.89,4.36s5.34-3.04,10.98-5.98c6.62-3.45,14.36-3.73,15.91-2.6c1.55,1.13,0.56,9.29-0.56,13.51  c-1.44,5.39-3.87,11.47-3.73,12.6c0.14,1.13,2.6,2.32,7.53,7.81c3.89,4.34,8.66,12.81,8.66,12.81L66.67,79.48L9.93,67.23z"
   id="path35529" />
<path
   style="fill:#DEDEDE;"
   d="M5.71,75.12c0,0.84,8.73,5.63,8.73,5.63s-10.42,3.8-10.42,4.5c0,1.13,15.91,16.75,31.53,22.1  c13.02,4.46,40.22,9.99,61.94-1.2c18.86-9.71,25.06-17.25,25.06-18.37s-8.45-5.63-8.45-5.63s8.87-6.05,8.87-6.9  c0-0.84-3.52-7.04-4.65-8.87s-4.5-7.18-5.91-7.74c-1.41-0.56-27.73-11.54-36.46-5.49c-4.56,3.16-5.21,6.76-5.21,10.28  c0,6.2,0.56,11.54,0.56,11.54s-2.11-2.32-5.77-2.39c-3.45-0.07-5.42,1.9-5.42,1.9s1.06-8.66,0.92-11.9  c-0.14-3.24-0.84-7.32-6.48-10.42c-8.07-4.44-28.19,3.62-34.35,7.11c-4.22,2.39-8.87,5.56-10.42,7.95S5.71,74.13,5.71,75.12z"
   id="path35531" />
<path
   style="fill:#5D6268;"
   d="M30.63,44.33c0.32,0,2.8-2.54,5.44-4.69c2.78-2.27,5.91-4.55,5.91-4.79c0-0.47-11.64-9.01-14.92-6.48  S29.88,44.33,30.63,44.33z"
   id="path35533" />
<path
   style="fill:#5D6268;"
   d="M86.66,34.66c-0.03,0.33,3.2,2.21,5.73,4.5c2.53,2.3,5.02,4.65,5.35,4.6  c0.66-0.09,6.29-12.86,3.66-15.11S86.75,33.73,86.66,34.66z"
   id="path35535" />
<path
   style="fill:#464C4F;"
   d="M43.02,102.52c1.82-0.71,1.5-7.6,4.6-14.27c3.1-6.66,6.66-9.95,8.73-11.36  c2.06-1.41,3.66-1.88,4.79-3.38c1.13-1.5,1.01-8.48-0.09-10.93c-1.5-3.33-5.63-7.93-13.8-7.37c-8.17,0.56-14.92,9.1-18.68,12.67  c-3.75,3.57-9.48,7.41-9.39,14.73c0.09,7.32,6.19,12.39,9.95,15.11C32.88,100.46,40.39,103.55,43.02,102.52z"
   id="path35537" />
<path
   style="fill:#464C4F;"
   d="M71.17,75.02c-1.69-1.13-1.03-6.19-0.94-8.54c0.09-2.35,1.03-8.35,7.41-10.04s9.76,0.84,13.61,3.47  c3.85,2.63,7.79,6.15,10.51,8.07c6.1,4.32,11.26,9.76,9.95,15.58c-1.31,5.82-5.11,9.45-10.98,13.61c-6.1,4.32-11.73,7.88-13.7,6.66  s-1.31-11.26-5.73-18.21C76.9,78.68,73.15,76.34,71.17,75.02z"
   id="path35539" />





<g
   id="g35380"
   transform="translate(0.85290976,-11.78893)"
   style="fill:#1f1f1f;fill-opacity:1"><path
     d="m 52.92,81.07 c 0,4.59 -3.31,8.3 -7.38,8.3 -4.07,0 -7.38,-3.72 -7.38,-8.3 0,-4.6 3.31,-8.31 7.38,-8.31 4.07,-0.01 7.38,3.71 7.38,8.31 z"
     style="fill:#1f1f1f;fill-opacity:1"
     id="path35376"
     sodipodi:nodetypes="ssscs" /><path
     d="m 75.26,81.07 c 0,4.59 3.3,8.3 7.38,8.3 4.07,0 7.38,-3.72 7.38,-8.3 0,-4.6 -3.31,-8.31 -7.38,-8.31 -4.07,-0.01 -7.38,3.71 -7.38,8.31 z"
     style="fill:#1f1f1f;fill-opacity:1"
     id="path35378"
     sodipodi:nodetypes="ssscs" /></g><path
   d="m 65.33291,98.875401 c -0.77,0 -1.39,-0.62 -1.39,-1.39 V 89.3354 c 0,-0.77 0.62,-1.39 1.39,-1.39 0.77,0 1.39,0.62 1.39,1.39 v 8.150001 c 0,0.77 -0.62,1.39 -1.39,1.39 z"
   style="fill:#2f2f2f"
   id="path35382"
   sodipodi:nodetypes="sssssss" /><g
   id="g35388"
   transform="translate(0.85290976,-9.1219789)"><path
     d="m 57.49,111.26738 c -0.43,0 -0.89,-0.02 -1.36,-0.06 -5.66,-0.5 -8.15,-4.89 -8.68,-7.15 -0.21,-0.92 0.36,-1.84 1.28,-2.05 0.92,-0.22 1.83,0.35 2.05,1.27 0.05,0.21 1.11,4.12 5.65,4.53 4.75,0.43 6.59,-2.06 6.67,-2.17 0.55,-0.76 1.6,-0.95 2.37,-0.42 0.77,0.53 0.97,1.57 0.45,2.35 -0.11,0.16 -2.57,3.7 -8.43,3.7 z"
     style="fill:#2f2f2f"
     id="path35384"
     sodipodi:nodetypes="sccccccscs" /><path
     d="m 71.52,111.26738 c -5.86,0 -8.32,-3.54 -8.43,-3.7 -0.53,-0.78 -0.32,-1.85 0.46,-2.38 0.79,-0.53 1.85,-0.32 2.38,0.46 0.06,0.08 1.93,2.57 6.65,2.15 4.63,-0.41 5.64,-4.48 5.65,-4.52 0.22,-0.92 1.14,-1.49 2.05,-1.28 0.92,0.22 1.49,1.13 1.28,2.05 -0.53,2.25 -3.03,6.65 -8.68,7.15 -0.48,0.05 -0.93,0.07 -1.36,0.07 z"
     style="fill:#2f2f2f"
     id="path35386"
     sodipodi:nodetypes="sccccccccs" /></g><g
   id="g35394"
   transform="translate(0.85290976,-9.1219789)"><path
     d="m 59.22,98.397379 c 0.08,1.05 0.79,2.150001 1.89,2.820001 0.88,0.55 2.13,0.82 3.36,0.82 1.22,0 2.47,-0.27 3.35,-0.82 1.1,-0.68 1.81,-1.770001 1.89,-2.820001 0.08,-1 -0.15,-2.02 -1.24,-2.72 -0.6,-0.39 -1.35,-0.65 -2.12,-0.79 -0.29,-0.05 -1.05,-0.18 -1.85,-0.18 -0.79,0 -1.62,0.12 -1.92,0.18 -0.77,0.14 -1.52,0.4 -2.12,0.79 -1.08,0.71 -1.32,1.72 -1.24,2.72 z"
     style="fill:#2f2f2f"
     id="path35390"
     sodipodi:nodetypes="ccsccccsccc" /><path
     d="m 64.43,103.52738 c -1.54,0 -3.04,-0.38 -4.11,-1.04 -1.47,-0.91 -2.47,-2.43 -2.59,-3.970001 -0.17,-2.24 0.96,-3.45 1.92,-4.08 0.74,-0.47 1.66,-0.82 2.66,-1 0.4,-0.08 1.31,-0.2 2.18,-0.2 0.94,0 1.8,0.14 2.12,0.2 1,0.18 1.92,0.53 2.65,1 0.97,0.63 2.1,1.85 1.92,4.09 -0.12,1.530001 -1.11,3.050001 -2.59,3.970001 -1.07,0.66 -2.57,1.04 -4.11,1.04 h -0.05 z m 0.07,-7.330001 c -0.68,0 -1.41,0.11 -1.64,0.15 -0.62,0.12 -1.19,0.32 -1.59,0.58 -0.39,0.25 -0.62,0.57 -0.56,1.35 0.05,0.6 0.51,1.25 1.19,1.67 0.61,0.380001 1.56,0.600001 2.55,0.600001 v 1.49 l 0.02,-1.49 v 0 c 0,0 1.98,-0.23 2.58,-0.600001 0.67,-0.41 1.15,-1.08 1.19,-1.67 0.07,-0.78 -0.17,-1.1 -0.56,-1.35 -0.4,-0.26 -0.97,-0.46 -1.58,-0.58 -0.17,-0.02 -0.88,-0.15 -1.6,-0.15 z"
     style="fill:#2f2f2f"
     id="path35392"
     sodipodi:nodetypes="cccccsccccsccscccccccsccccs" /></g></svg>
